X: 30132
T: Old Bush, The
R: reel
M: 4/4
K: Amixolydian
|:A^G|(3EFE DE G~E3|A^GAB cABG|(3EFE DE G~E3|AcBA GEA^G|
(3EFE DE G~E3|A^GAB ~c3d|ec (3dcB cAB^G|AcBA GE:|
|:Ed|B~d3 BAGA|BcdB G3A|B~d3 e2dB|AcBA GEEd|
B~d3 e~d3|BcdB ABcd|ec (3dcB cAB^G|AcBA GE:|

